X: 8720
T: Crucaharan Cross, The
R: polka
M: 2/4
K: Amajor
Ac Bc|A>B Af|ec c/B/A/B/|cB Bc/B/|
Ac Bc|A2 Af|ec Bc/B/|A2 A:|
~f2 fa|A2 Af|ec c/B/A/B/|cB Be|
f2 fa|A2 Af|ec Bc/B/|A2 A:|

